Pods/ProtonCore-UIFoundations/libraries/UIFoundations/Sources/Assets.xcassets/Images/IconSet/ic-star-slash.imageset/ic-star-slash.svg

<svg width="24" height="24" viewBox="0 0 24 24" fill="none" xmlns="http://www.w3.org/2000/svg">
<path fill-rule="evenodd" clip-rule="evenodd" d="M12 3.66482L9.78756 7.60922C9.62679 7.89584 9.41063 8.13946 9.15708 8.33064L16.7888 16.2804L16.575 14.6779C16.4803 13.9685 16.7206 13.2638 17.2121 12.7584L20.3022 9.58051L15.8429 8.76858C15.1623 8.64465 14.5588 8.22673 14.2124 7.60922L12 3.66482ZM18.5465 18.1113L18.0618 14.4795C18.0289 14.2328 18.1118 13.9848 18.2875 13.8041L22.2664 9.71212C22.7295 9.23583 22.4669 8.45001 21.8043 8.32937L16.1116 7.29284C15.8601 7.24706 15.6432 7.09379 15.5207 6.87541L12.7477 1.93158C12.4249 1.35614 11.5751 1.35614 11.2523 1.93158L8.4793 6.87541C8.3924 7.03034 8.25794 7.1525 8.09735 7.22676L3.54104 2.4806C3.25418 2.18179 2.77941 2.1721 2.4806 2.45896C2.18179 2.74582 2.1721 3.22059 2.45896 3.5194L20.459 22.2694C20.7458 22.5682 21.2206 22.5779 21.5194 22.291C21.8182 22.0042 21.8279 21.5294 21.541 21.2306L18.5465 18.1113ZM4.71951 7.86983L5.9654 9.16764L3.69783 9.58051L6.7879 12.7584C7.27936 13.2638 7.51969 13.9685 7.42501 14.6779L6.83955 19.0648L11.0062 17.1418C11.6362 16.851 12.3638 16.851 12.9938 17.1418L14.1192 17.6612L16.967 20.6276L12.3652 18.5037C12.1341 18.397 11.8659 18.397 11.6348 18.5037L6.40266 20.9185C5.79367 21.1996 5.10617 20.714 5.19292 20.064L5.93819 14.4795C5.97111 14.2328 5.88824 13.9848 5.71248 13.8041L1.73357 9.71211C1.27045 9.23583 1.53305 8.45001 2.19565 8.32937L4.71951 7.86983Z" fill="#0C0C14"/>
</svg>

<svg xmlns="http://www.w3.org/2000/svg" width="24" height="24" viewBox="0 0 24 24">
  <g class="ic-star-slash">
    <path fill-rule="evenodd" d="M12 3.665 9.788 7.609c-.161.287-.377.53-.63.722l7.63 7.95-.213-1.603a2.313 2.313 0 0 1 .637-1.92l3.09-3.177-4.46-.812a2.35 2.35 0 0 1-1.63-1.16L12 3.665Zm6.547 14.446-.485-3.632a.814.814 0 0 1 .226-.675l3.978-4.092c.464-.476.2-1.262-.462-1.383l-5.692-1.036a.85.85 0 0 1-.591-.418l-2.773-4.943c-.323-.576-1.173-.576-1.496 0L8.48 6.875a.842.842 0 0 1-.382.352L3.541 2.48a.75.75 0 1 0-1.082 1.038l18 18.75a.75.75 0 1 0 1.082-1.038l-2.994-3.12ZM4.72 7.87l1.245 1.298-2.267.413 3.09 3.177c.491.506.732 1.21.637 1.92l-.585 4.387 4.166-1.923a2.373 2.373 0 0 1 1.988 0l1.125.52 2.848 2.966-4.602-2.124a.873.873 0 0 0-.73 0l-5.232 2.415c-.61.28-1.297-.205-1.21-.855l.745-5.585a.813.813 0 0 0-.226-.675L1.734 9.712c-.464-.476-.2-1.262.462-1.383l2.524-.46Z" class="Icon"/>
  </g>
</svg>
